X:1
T:La Valse Triste
T:La Valse Triste
T:F. Vecsey - G. Cziffra
C:F. Vecsey - G. Cziffra
%%score { ( 1 2 ) | ( 3 4 5 6 ) }
L:1/8
Q:1/4=100
M:3/4
K:E
V:1 treble nm="Piano" snm="Pno."
V:2 treble 
V:3 bass 
V:4 bass 
V:5 bass 
V:6 bass 
V:1
!f!"^Allegretto" !>!G,6[Q:1/4=106][Q:1/4=109] | %1
[Q:1/4=110]"^.9" z2[Q:1/4=112]"^.4"!>(! ((!tenuto![cfb]2[Q:1/4=113]"^.8" [cfa]2))!>)! | %2
[Q:1/4=115] z2[Q:1/4=116]"^.2"!>(! (!tenuto![B,FB]2[Q:1/4=117]"^.2" [FA]2)!>)!!mf![Q:1/4=118]"^.2" x4[Q:1/4=118]"^.4"[Q:1/4=118]"^.7"[Q:1/4=118]"^.9"[Q:1/4=119]"^.1"[Q:1/4=119]"^.3"[Q:1/4=119]"^.6"[Q:1/4=119]"^.8" | %3
[Q:1/4=120] x8"^lunga" x2"^a tempo" x x/[Q:1/4=120]"^.9"[Q:1/4=121]"^.6"[Q:1/4=122]"^.4"[Q:1/4=123]"^.4"[Q:1/4=126]"^.1"[Q:1/4=129]"^.8"[Q:1/4=131]"^.9"[Q:1/4=134]"^.4"[Q:1/4=137]"^.1"[Q:1/4=140][Q:1/4=80] | %4
[Q:1/4=80]"^ritardando"!mp!!>(! (g/[Q:1/4=79]"^.7"G/[Q:1/4=79]"_dim."!fermata!d)!>)![Q:1/4=75]"^.7"!>(! (g'/[Q:1/4=73]"^.3"g/[Q:1/4=70]"^.3"!fermata!d')!>)![Q:1/4=62]"^.5"!8va(!!<(! (g''/[Q:1/4=57]"^.8"g'/[Q:1/4=52]"^.4"!fermata!d'')!8va)!!<)![Q:1/4=40]!pp!"^loco""^a tempo" (e[Q:1/4=40]"^.2"!>(!d[Q:1/4=45]A[Q:1/4=70]"^.3"G/-!>)! | %5
[Q:1/4=100] (G6) | z2)!p! (!arpeggio!GA Ge | d6- | d3) (c AD | G6) |!mp! (B3 c BG) | %11
 (!tenuto!A2!p! !tenuto!A2!<(! !tenuto!A2)!<)! |!>(! (G3!>)! A GE) | %13
"^dim."!>(! (!tenuto!F2!>)!!pp! !tenuto!F2 !tenuto!F2) | %14
"^rall."[Q:1/4=100] (D2[Q:1/4=91] [^B,G]4)[Q:1/4=74][Q:1/4=67][Q:1/4=40] | %15
[Q:1/4=100] z2!p! (G{/B}A Ge | d6- | d3) (c AD | G6) |!mp!!>(! (B3!>)! c BG) | %20
 (!tenuto!A2!<(! !tenuto!A2 !tenuto!A2)!<)! |!mf!!>(! (G3!>)! A GE) | %22
"^dim." (!tenuto!F2 !tenuto!F2 !tenuto!F2) | %23
[Q:1/4=100] (D2[Q:1/4=98]"^.9" [^B,G]4)[Q:1/4=90][Q:1/4=85][Q:1/4=49] | %24
[Q:1/4=49]"^.7" z!p![Q:1/4=50]"^.4" (E[Q:1/4=53]"^.7" F[Q:1/4=61]"^.2"G[Q:1/4=74]"^.1" A[Q:1/4=93]"^.4"B | %25
"^incalzando poco a poco"[Q:1/4=120] c6 | d2)!mp! ([Dd][Cc] [B,B][Dd]) | [Cc]6 | %28
!mf! [Dd]2 (3(G^A^B cd | [Ee]6 | (3[Ff])A^B!f! ([Ff][Ee] [Dd][Ff]) | ([Ee]6 | %32
!f!"^appassionato"[Q:1/4=120] (3[Ff])[Q:1/4=121]d[Q:1/4=121]"^.7"(B-[Q:1/4=122]"^.4" B/[Q:1/4=122]"^.9"!>!c[Q:1/4=123]"^.7"!>!d[Q:1/4=124]"^.6"!>!e[Q:1/4=125]"^.4"!>!f/[Q:1/4=120]"^.6"[Q:1/4=121]"^.4"[Q:1/4=123]"^.3"[Q:1/4=124]"^.2"[Q:1/4=125] | %33
[Q:1/4=125]"^.7"!ff! [Gg]6)[Q:1/4=126][Q:1/4=126][Q:1/4=126][Q:1/4=127][Q:1/4=127][Q:1/4=127][Q:1/4=127][Q:1/4=128][Q:1/4=128][Q:1/4=128][Q:1/4=128]!8va(![Q:1/4=129][Q:1/4=129][Q:1/4=129][Q:1/4=129][Q:1/4=129]!8va)! | %34
[Q:1/4=130]!>(! z2!>)!"^loco"!f! (!>![^A^a]2 !>![Gg]2) | !>![Ff]4!8va(!"^loco" x2!8va)! | %36
 !>!x2 x2!8va(! x2!8va)! | D4!8va(! x2!8va)! | %38
"^loco"[Q:1/4=130] z2[Q:1/4=128][Q:1/4=128][Q:1/4=127]!f![Q:1/4=126]"^.5" ([Dd][Q:1/4=125]"^.2"[Ee][Q:1/4=124] [^F^f][Q:1/4=122]"^.8"[Dd][Q:1/4=125]"^.9"[Q:1/4=124]"^.6"[Q:1/4=123]"^.4"[Q:1/4=122]"^.2" | %39
[Q:1/4=121]"^.7" ([Gg]6)[Q:1/4=120][Q:1/4=120][Q:1/4=120][Q:1/4=119][Q:1/4=119][Q:1/4=119][Q:1/4=118][Q:1/4=118][Q:1/4=117]!8va(![Q:1/4=117][Q:1/4=116][Q:1/4=116]!8va)! | %40
"^loco"[Q:1/4=115]"^.5" g')[Q:1/4=114]"^.6"(5:4:5^^F/4[Q:1/4=114]"^.4"A/4[Q:1/4=114]"^.2"F/4[Q:1/4=114]A/4[Q:1/4=113]"^.8"F/4!ff![Q:1/4=113]"^.6" [Dd][Q:1/4=112]"^.7"[Ee][Q:1/4=111]"^.8" [^Ff][Q:1/4=110]"^.9"[Dd][Q:1/4=115]"^.1"[Q:1/4=114]"^.1"[Q:1/4=113]"^.2"[Q:1/4=112]"^.3"[Q:1/4=111]"^.3"[Q:1/4=110]"^.4" | %41
[Q:1/4=110] [Gg]6!8va(! | %42
 (5:4:5g''/g'/g''/g'/g''/"^loco" (5:4:5g'/!8va)!(g'/g/g'/g/ (6:4:6g'/g/g'/g/g'/g/ | %43
[Q:1/4=110] (6:4:5g'/[Q:1/4=109]"^.2"g/[Q:1/4=108]"^.6"g'/[Q:1/4=108]g/[Q:1/4=107]"^.5"[c'^e'])"_martellando"[Q:1/4=106]"^.5" [gc'e'g'][Q:1/4=105]"^.2"[gc'e'g'][Q:1/4=104] (3[gc'e'g'][Q:1/4=103]"^.2"[gc'e'g'][Q:1/4=102]"^.4"[gc'e'g'][Q:1/4=101]"^.7" !arpeggio![gc'e'g']/[Q:1/4=101]"^.1"!arpeggio![gc'e'g']/[Q:1/4=100]"^.6"!arpeggio![gc'e'g']/[Q:1/4=100]"^.1"!arpeggio![gc'e'g']/[Q:1/4=99]"^.5"[I:staff +1] [B,C^EG]/4[Q:1/4=99]"^.3"[I:staff -1][gc'e'g']/4[Q:1/4=99][I:staff +1][B,CEG]/4[Q:1/4=98]"^.8"[I:staff -1][gc'e'g']/4[Q:1/4=98]"^.5"[I:staff +1][B,CEG]/4[Q:1/4=98]"^.3"[I:staff -1][gc'e'g']/4[Q:1/4=98][I:staff +1][B,CEG]/4[Q:1/4=97]"^.7"[I:staff -1][gc'e'g']/4[Q:1/4=97]"^.5"[I:staff +1] [B,CEG]/4[Q:1/4=97]"^.2"[I:staff -1][gc'e'g']/4[Q:1/4=97][I:staff +1][B,CEG]/4[Q:1/4=96]"^.8"[I:staff -1][gc'e'g']/4[Q:1/4=96]"^.5"[I:staff +1][B,CEG]/4[Q:1/4=96]"^.3"[I:staff -1][gc'e'g']/4[Q:1/4=96][I:staff +1][B,CEG]/4[Q:1/4=95]"^.8"[I:staff -1][gc'e'g']/4[Q:1/4=95]"^.5"[I:staff +1] [B,CEA]/4[Q:1/4=95]"^.3"[I:staff -1][ac'e'a']/4[Q:1/4=95]"^.1"[I:staff +1][B,CEG]/4[Q:1/4=94]"^.8"[I:staff -1][gc'e'g']/4[Q:1/4=94]"^.6"[I:staff +1][B,CE^^F]/4[Q:1/4=94]"^.3"[I:staff -1][^^fc'e'^^f']/4[Q:1/4=94]"^.1"[I:staff +1][B,CEG]/4[Q:1/4=93]"^.9"[I:staff -1][gc'e'g']/4[Q:1/4=93]"^.6"[I:staff +1] [B,CEB]/4[Q:1/4=93]"^.4"[I:staff -1][bc'e'b']/4[Q:1/4=93]"^.2"[I:staff +1][B,CE^A]/4[Q:1/4=92]"^.9"[I:staff -1][^ac'e'^a']/4[Q:1/4=92]"^.7"[I:staff +1][B,CE=A]/4[Q:1/4=92]"^.5"[I:staff -1][=ac'e'=a']/4[Q:1/4=92]"^.3"[I:staff +1][B,CEG]/4[I:staff -1][gc'e'g']/4 | %44
[Q:1/4=90] [ac'f'a']6[Q:1/4=90][Q:1/4=90][Q:1/4=90][Q:1/4=90][Q:1/4=91][Q:1/4=91][Q:1/4=91][Q:1/4=92][Q:1/4=92][Q:1/4=90]"^.1"[Q:1/4=90]"^.2"[Q:1/4=90]"^.8"[Q:1/4=91]"^.1" | %45
[Q:1/4=93]!8va(! [f''a'']/[Q:1/4=93]"^.5"=d''/[Q:1/4=94][f''a'']/!8va)![Q:1/4=94]"^.5"[I:staff +1][A,F]/[Q:1/4=95] ([=DA]/[Q:1/4=95]"^.5"F/"^loco""^quasi diminuendo"[Q:1/4=96]"^.1"!<(!(3A,/[Q:1/4=96]"^.5"D/[Q:1/4=96]"^.9"F/[Q:1/4=97]"^.3" A<[Q:1/4=98]A,)[Q:1/4=98]!<)! | %46
[Q:1/4=100]!>(![I:staff -1] (([gg'][ff'])!>)! ([ee']2 [B,B]2) | [Cc]4) x2 |"^velocissimo" [Ff]6 | %49
"^incalzando poco a poco" [Ee]3!8va(![I:staff +1]{/ec} ([Aa] [Gg]!8va)!{/[A,A]-}[A,A]) | %50
[Q:1/4=100][I:staff -1] [=D=d]4[Q:1/4=100][Q:1/4=100][Q:1/4=100][Q:1/4=100][Q:1/4=100][Q:1/4=100]!8va(![Q:1/4=100][Q:1/4=101] x2[Q:1/4=101][Q:1/4=101]!8va)![Q:1/4=101][Q:1/4=101][Q:1/4=101][Q:1/4=101] | %51
[Q:1/4=102] [Cc]3[Q:1/4=102][Q:1/4=102][Q:1/4=103][Q:1/4=103][Q:1/4=103]"^.9" x3[Q:1/4=104][Q:1/4=104]!8va(![Q:1/4=105][Q:1/4=105][Q:1/4=105][Q:1/4=105]!8va)! | %52
"^loco"[Q:1/4=106]"^.4" [Cc]3[Q:1/4=107][Q:1/4=107][Q:1/4=108][Q:1/4=108][Q:1/4=109]"^.4" x3[Q:1/4=110][Q:1/4=110]!8va(![Q:1/4=110][Q:1/4=111][Q:1/4=111][Q:1/4=112]!8va)! | %53
"^loco"[Q:1/4=112]"^.9" [Cc]3[Q:1/4=114][Q:1/4=114][Q:1/4=115][Q:1/4=116][Q:1/4=116]"^.8" x3[Q:1/4=117][Q:1/4=118][Q:1/4=119][Q:1/4=119][Q:1/4=120][Q:1/4=120][Q:1/4=114]"^.6"[Q:1/4=115] | %54
"^martellato"[Q:1/4=121]"^.2" x16[Q:1/4=150]"^.9" x4[Q:1/4=121]"^.9"[Q:1/4=122]"^.7"[Q:1/4=123]"^.5"[Q:1/4=124]"^.3"[Q:1/4=125]"^.1"[Q:1/4=125]"^.9"[Q:1/4=126]"^.8"[Q:1/4=127]"^.6"[Q:1/4=128]"^.2"[Q:1/4=128]"^.7"[Q:1/4=129]"^.3"[Q:1/4=129]"^.9"[Q:1/4=130]"^.5"[Q:1/4=131]"^.1"[Q:1/4=131]"^.7"[Q:1/4=132]"^.3"[Q:1/4=132]"^.9"[Q:1/4=133]"^.5"[Q:1/4=134]"^.1"[Q:1/4=134]"^.7"[Q:1/4=135]"^.3"[Q:1/4=136][Q:1/4=136]"^.6"[Q:1/4=137]"^.2"[Q:1/4=137]"^.9"[Q:1/4=138]"^.5"[Q:1/4=139]"^.2"[Q:1/4=139]"^.8"[Q:1/4=140]"^.5"[Q:1/4=141]"^.2"[Q:1/4=141]"^.8"[Q:1/4=142]"^.5"[Q:1/4=143]"^.2"[Q:1/4=143]"^.9"[Q:1/4=144]"^.6"[Q:1/4=145]"^.2"[Q:1/4=145]"^.9"[Q:1/4=146]"^.6"[Q:1/4=147]"^.3"[Q:1/4=148]"^.1"[Q:1/4=148]"^.8"[Q:1/4=149]"^.5"[Q:1/4=150]"^.2"[Q:1/4=151]"^.7"[Q:1/4=152]"^.4"[Q:1/4=153]"^.1"[Q:1/4=153]"^.9"[Q:1/4=154]"^.6"[Q:1/4=155]"^.4"[Q:1/4=156]"^.1"[Q:1/4=156]"^.9"[Q:1/4=157]"^.7"[Q:1/4=158]"^.4"[Q:1/4=159]"^.2" | %55
!ff!"^velocissimo""^passionato possibile" (!^![A,A]4"_m.s.\nad lib.\n" !>![gg']2) | %56
 (!^![A,A]4"_m.s.\nad lib.\n" !>![gg']2) | (!^![A,A]4!8va(! g''2)!8va)! x | %58
[Q:1/4=130] !^!!tenuto![A,A]6[Q:1/4=129]"^.3"[Q:1/4=129]"^.2"[Q:1/4=129]"^.1"[Q:1/4=129][Q:1/4=128]"^.9"[Q:1/4=128]"^.8"[Q:1/4=128]"^.7"[Q:1/4=128]"^.6"[Q:1/4=128]"^.5"[Q:1/4=128]"^.4"[Q:1/4=128]"^.3"[Q:1/4=128]"^.2"[Q:1/4=128]"^.1"[Q:1/4=128][Q:1/4=127]"^.9"[Q:1/4=127]"^.8"[Q:1/4=127]"^.7"[Q:1/4=127]"^.6"[Q:1/4=127]"^.5"[Q:1/4=127]"^.4"[Q:1/4=127]"^.3"[Q:1/4=127]"^.1"[Q:1/4=127][Q:1/4=126]"^.9"[Q:1/4=126]"^.8"[Q:1/4=126]"^.7"[Q:1/4=126]"^.5"[Q:1/4=126]"^.4"[Q:1/4=126]"^.3"[Q:1/4=126]"^.1"[Q:1/4=126][Q:1/4=125]"^.9"[Q:1/4=125]"^.7" | %59
[Q:1/4=125]"^.6"!8va(! x4[Q:1/4=119]"^.4" x2!8va)![Q:1/4=115]"^loco" x/4[Q:1/4=125]"^.4"[Q:1/4=125]"^.3"[Q:1/4=125]"^.1"[Q:1/4=125][Q:1/4=124]"^.8"[Q:1/4=124]"^.6"[Q:1/4=124]"^.4"[Q:1/4=124]"^.3"[Q:1/4=124]"^.1"[Q:1/4=123]"^.9"[Q:1/4=123]"^.7"[Q:1/4=123]"^.5"[Q:1/4=123]"^.4"[Q:1/4=123]"^.2"[Q:1/4=123][Q:1/4=122]"^.8"[Q:1/4=122]"^.6"[Q:1/4=122]"^.4"[Q:1/4=122]"^.2"[Q:1/4=122][Q:1/4=121]"^.8"[Q:1/4=121]"^.6"[Q:1/4=121]"^.4"[Q:1/4=121]"^.2"[Q:1/4=121][Q:1/4=120]"^.7"[Q:1/4=120]"^.5"[Q:1/4=120]"^.3"[Q:1/4=120]"^.1"[Q:1/4=119]"^.9"[Q:1/4=119]"^.6"[Q:1/4=116]"^.5"[Q:1/4=116]"^.2"[Q:1/4=116][Q:1/4=115]"^.9"[Q:1/4=115]"^.7"[Q:1/4=115]"^.6"[Q:1/4=115]"^.6"[Q:1/4=115]"^.5"[Q:1/4=115]"^.4"[Q:1/4=115]"^.3"[Q:1/4=115]"^.3"[Q:1/4=115]"^.2"[Q:1/4=115]"^.2"[Q:1/4=115]"^.1"[Q:1/4=115]"^.1"[Q:1/4=115] | %60
[Q:1/4=115]"^ritenuto molto poco slentando tranquilo" x6 | %61
 (6:4:6(g/a'/g'/)!>(!(g/a'/g'/) (6:4:6g/a'/g'/g/a'/g'/"_legato" (7:4:7a'/g'/a'/g'/a'/g'/a'/!>)! | %62
!pp! (5:4:5g'/g/a'/g'/g/ (6:4:6a'/g'/g/a'/g'/g/ (5:4:5a'/g'/g/a'/g'/ | %63
 (6:4:6g/a'/g'/g/a'/g'/ (6:4:6g/a'/g'/g/a'/g'/ (6:4:6g/a'/g'/g/a'/g'/ | %64
"^egualimente" (6:4:6g/a'/g'/g/a'/g'/ (6:4:6g/a'/g'/g/a'/g'/ (6:4:6g/a'/g'/g/a'/g'/ | %65
 (6:4:6g/a'/g'/g/a'/g'/ (6:4:6g/a'/g'/g/a'/g'/ (6:4:6g/a'/g'/g/a'/g'/ | %66
 (6:4:6g/a'/g'/g/a'/g'/ (6:4:6g/a'/g'/g/a'/g'/ (6:4:6g/a'/g'/g/a'/g'/ | %67
[Q:1/4=115] (6:4:6g/a'/g'/[Q:1/4=115]"^.1"g/a'/[Q:1/4=115]"^.2"g'/ (6:4:6g/[Q:1/4=115]"^.3"a'/[Q:1/4=115]"^.4"g'/[Q:1/4=115]"^.5"g/[Q:1/4=115]"^.6"a'/g'/[Q:1/4=115]"^.7" (6:4:6g/[Q:1/4=115]"^.9"a'/[Q:1/4=116]g'/[Q:1/4=116]"^.1"g/[Q:1/4=116]"^.2"a'/[Q:1/4=116]"^.3"g'/ | %68
[Q:1/4=116]"^.5" (6:4:6g/[Q:1/4=116]"^.6"a'/[Q:1/4=116]"^.8"g'/[Q:1/4=116]"^.9"g/[Q:1/4=117]"^.1"a'/[Q:1/4=117]"^.2"g'/[Q:1/4=117]"^.4" (6:4:6g/[Q:1/4=117]"^.6"a'/[Q:1/4=117]"^.7"g'/[Q:1/4=117]"^.9"g/[Q:1/4=118]"^.1"a'/[Q:1/4=118]"^.3"g'/"^rit."[Q:1/4=118]"^.5" (9:8:8g/4[Q:1/4=118]"^.6"a'/4[Q:1/4=118]"^.7"g'/4[Q:1/4=118]"^.9"g/4[Q:1/4=119]a'/4[Q:1/4=119]"^.1"g'/4[Q:1/4=119]"^.3"=g/4[Q:1/4=119]"^.4"^g'/ | %69
!pp![Q:1/4=119]"^.7" (f2!8va(! ^e'')!8va)![Q:1/4=180]"^loco"(c''/a'/"_calmo" ^e'/f'/c'/a/^e/f/c/A/[I:staff +1]F/C/A,/F,/[I:staff -1]A,/C/F/^^F/) | %70
[Q:1/4=110]"^con resignazione" (GG,) !tenuto!!fermata![F,^B,E]2 (DG,) | C6- | %72
 C2!mp!"^espressivo" (CD CE) |"^tranquillo"!pp!!>(! D6!>)! | %74
[Q:1/4=110]!8va(! x6!8va)![Q:1/4=107][Q:1/4=105][Q:1/4=99][Q:1/4=96][Q:1/4=86] | %75
[Q:1/4=82]"^.6" x6[Q:1/4=69][Q:1/4=65][Q:1/4=55][Q:1/4=44][Q:1/4=38][Q:1/4=32]"^.5" | %76
!p![Q:1/4=32]"^.5" [^B,D]6[Q:1/4=32][Q:1/4=32][Q:1/4=32]!8va(![Q:1/4=33][Q:1/4=33][Q:1/4=33][Q:1/4=33][Q:1/4=34][Q:1/4=34][Q:1/4=35]!8va)![Q:1/4=36][Q:1/4=37][Q:1/4=37][Q:1/4=38][Q:1/4=40] | %77
[Q:1/4=41]"^.3"!8va(! c6[Q:1/4=42][Q:1/4=44][Q:1/4=45][Q:1/4=48][Q:1/4=49][Q:1/4=50][Q:1/4=50][Q:1/4=51][Q:1/4=52][Q:1/4=53][Q:1/4=55][Q:1/4=56][Q:1/4=57][Q:1/4=58][Q:1/4=60][Q:1/4=61][Q:1/4=63][Q:1/4=64][Q:1/4=66][Q:1/4=67][Q:1/4=69][Q:1/4=70][Q:1/4=72][Q:1/4=74][Q:1/4=76][Q:1/4=77][Q:1/4=79][Q:1/4=81][Q:1/4=83][Q:1/4=85][Q:1/4=87][Q:1/4=47]"^.2"[Q:1/4=53]"^.4"[Q:1/4=57] | %78
"^a tempo"[Q:1/4=90]!<(! x6!<)! | %79
[Q:1/4=90]!pp! x6[Q:1/4=81][Q:1/4=78][Q:1/4=75][Q:1/4=73][Q:1/4=71][Q:1/4=69][Q:1/4=67][Q:1/4=64][Q:1/4=62][Q:1/4=61][Q:1/4=59][Q:1/4=57][Q:1/4=56][Q:1/4=54][Q:1/4=53][Q:1/4=51][Q:1/4=50][Q:1/4=49][Q:1/4=47][Q:1/4=46][Q:1/4=45][Q:1/4=44][Q:1/4=43][Q:1/4=42][Q:1/4=41] | %80
"^a tempo  rit. molto _    _    _"[Q:1/4=40] [c'c'']2!pp! !arpeggio![c'e']2 !arpeggio![c'g'c''e'']2!8va)! | %81
"^loco"[Q:1/4=5] !tenuto![E,C]4 !fermata!z2 |] %82
V:2
 z2"^.5""^sempre rubato ed espressivo assai"!>(! ((!tenuto![bf'b']2 [af'a']2))!>)! | x6 | x10 | %3
 x23/2 | x4!8va(! x2!8va)! x7/2 | x6 | x6 | x6 | x6 | z2 (D2 C2) | x6 | z2 (^B,2 C2 | (D2 C4)) | %13
 z2 ^B,2 C2 | C2 G>"^.4"(!tenuto!G"^.2" g>)"^.5"(g | g'6) | x6 | x6 | z2!<(! (D2 C2)!<)! | %19
 (D2 C4) | z2 (^B,2 C2 | D2 C4) | z2 (^B,2 C2) | C2 G>"^.9"(G g>)"^.7"(g | g'4) x2 | x6 | %26
 D(=F/G/) x2 x2 | x6 | x6 | x6 | x6 | x6 | x6 | %33
(6:4:5x"^.3"!<(!G/"^.5"e/"^.7"B/g/-"^.2" (5:4:5g/"^.5"g/"^.8"e'/"^.1"b/"^.4"g'/-"^.6" g'/4"^.8"!8va(!g'/4g''/4"^.2"g'/4"^.3"g''/4"^.5"g'/4!<)!"^.7"g''/!8va)! | %34
 x2 ^A(3A/=d/e/ (5:4:5G/d/e/G/[I:staff +1][^D,,^D,]/- | %35
[I:staff -1](6:4:5x(B/f/f/f'/ (7:4:7d'/f'/)!8va(!(f'/f''/b'/f''/f'/)!8va)! (3(f'/b/f'/f) | %36
 (3[Ee]/^^F/^A/e/4e'/4^^f/4^a/4 (3z!8va(! e''[^^f'^a']!8va)! z/ e'/[e^^f=a]/[I:staff +1][B,,B,]/- | %37
[I:staff -1](6:4:6x/G/d/G/d/d'/ (6:4:6g/d'/g/d'/!8va(!d'/d''/ (6:4:5g'/d''/d'/d'/g!8va)! | %38
 z/"^.9" ^^F/A/"^.3"F/ z2 z2 | %39
x"^.6"d/4"^.3"a/4"^.1"g/4"^.8"g/4"^.5" a'/d'/"^.5"g'/g'/"^.5"!8va(! a''/d''/"^.5"g''/g'/!8va)! | %40
 x6 |(5:4:5x/(G/g/)(g/g'/)!8va(! g'/g''/g'/g''/ (5:4:5g'/g''/g'/g''/g'/ | x12/5!8va)! x18/5 | x16 | %44
x>"^.3"c"^.5" a/"^.7"c/"^.9"f/"^.2"a/"^.5" a'/"^.9"c'/"^.2"f'/"^.6"a'/ | %45
!8va(! z3!8va)! ([ff'] [gg']"^.6"[aa']) | %46
x2(x/4b/4g/4e/4[I:staff +1]=d/4B/4G/4)E/4[I:staff -1]x/E/G/[I:staff +1]A,,/- | %47
[I:staff -1](6:4:5x(E/e/A/c/ e/e'/a/c'/ (5:4:5e/e/A/E/[I:staff +1]=D,,/) | x6 | %49
[I:staff -1]x(3(A/c/e/ (3e'/a/c'/!8va(!e'/4e''/4a'/4c''/4 (3e'/!8va)!"^loco"e'/a/(3e/c'/e/) | %50
(3x(^E"^.1"G"^.3" (6:4:6=d/"^.4"=d'/"^.5"^e/"^.6"g/"^.7"!8va(!d'/"^.8"=d''/ ^e'/4"^.1"g'/4"^.2"d'/4!8va)!"^loco""^.3"d'/4"^.4"e/4"^.6"g/4"^.7"d/) | %51
x"^.6"(c/"^.9"c'/"^.2" c/"^.6"c'/c/"^.3"c'/"^.7"!8va(! (6:4:5c'/c''/"^.3"c'/"^.5"c''/"^.8"c')!8va)! | %52
x"^.4"(c/"^.9"c'/"^.4" c/"^.9"c'/c/c'/"^.6"!8va(! (6:4:5c'/"^.9"c''/"^.3"c'/"^.7"c''/"^.1"c')!8va)! | %53
x"^.2"(c/"^.8"c'/"^.5" c/"^.2"c'/c/"^.5"c'/"^.2" c/c'/"^.7"(3c/"^.2"c'/"^.7"c/) | x20 | x6 | x6 | %57
 x4!8va(! x2!8va)! x | x6 |!8va(! x6!8va)! x/4 | x6 | x6 | x6 | x6 | x6 | x6 | x6 | x6 | x6 | %69
 x2!8va(! x!8va)! x9 | x6 | x6 | ^^F,6 |x>!pp!!pp!(G g>)(g g'>)(g' | %74
!8va(! g''>)!8va)!"^loco""^.5"(g'"^.9" g'>)"^.2"(g'"^.4" g>)"^.4"!<(!(G | %75
 g>)!<)!"^.9"!mp!(g"^rall.""^.2"!>(! .g')"^.1"!8va(!.g''!8va)!"^loco""^.2" (g'<"^.4"g)!>)! | %76
[I:staff +1](6:4:6x/[I:staff -1](G/g/)"^.6"(g/"^.7"g'/)"^.8"!8va(!(g'/ (6:4:6g''/"^.2"g'/)"^.5"[I:staff +1](g''/"^.9"g'/"^.3"g''/)"^.8"[I:staff -1](g'/"^.4" (6:4:6g''/)!8va)!"^loco""^.2"[I:staff +1](G/g/)"^.9"(G/"^.9"g/)"^.1"[I:staff -1](g/ | %77
!8va(!(3x/)"^.7"g'/"^.2"c'/-"^.9""_leggierissimo" c'/"^.6"d''/8"^.4"c'/8"^quasi trillo""^.1"c''/8"^.9"g'/8"^.7" (12:16:12d''/8"^.8"c'/8"^accel. _    _    _    _    _    _    _    _""^.9"c''/8"^.1"g'/8"^.3"d''/8"^.6"c'/8"^.9"c''/8"^.2"g'/8"^.6"d''/8"^.1"c'/8"^.5"c''/8g'/8"^.6" (12:16:12d''/8"^.2"c'/8"^.9"c''/8"^.6"g'/8"^.3"d''/8"^.1"c'/8"^.9"c''/8"^.8"g'/8"^.8"d''/8"^.7"c'/8"^.8"c''/8"^.9"g'/8 | %78
 (12:16:12d''/8c'/8c''/8g'/8d''/8c'/8c''/8g'/8d''/8c'/8c''/8g'/8!mp! (12:16:12d''/8!>(!c'/8c''/8g'/8d''/8c'/8c''/8g'/8d''/8c'/8c''/8g'/8 (12:16:12d''/8c'/8c''/8g'/8d''/8c'/8c''/8g'/8d''/8c'/8c''/8g'/8!>)! | %79
 (6:4:6d''/4"^.6"c'/4"^.1"c''/4"^.5"g'/4"^.2"d''/4"^.3"c'/4"^.5"!>(! c''/4"^.1"g'/4"^.9"d''/4"^.9"c'/4 c''/4"^.3"g'/4"^molto rit. _    _    _    _    _    _    _    _    _""^.6"d''/4"^.1"c'/4"^.6" c''/4"^.1"g'/4"^.8"d''/4"^.4"c'/4"^.1" c''/4"^.9"g'/4!>)!"^.7"!ppp!d''/4"^.5"c'/4"^.3" c''/4"^.2"g'/4"^.1"d''/4g'/4 | %80
 x6!8va)! | x6 |] %82
V:3
!ped! !>![G,,,G,,]6 | !>!G,,6 | %2
 G,,6!ped-up!!ped! (G,,/C,/F,/A,/!<(![I:staff -1]C/E/A/c/!ped-up!!<)! | %3
[I:staff +1][K:treble]!>(!!ped! e2)!>)!!<(! ((C/F/A/!<)!!>(! !fermata!d)[I:staff -1]e!<(!d/!>)!e/d/e/)!<)! Td2!>(! ^^c/d/e/f/!ped-up!!>)! | %4
!ped![I:staff +1] [^B,F]6 x2 x x/!ped-up! |[K:bass]!ped! C,2 [G,CE]2 [G,CE]2 | %6
 C,2 !arpeggio![G,CE]4!ped-up! |!ped! F,,2 [F,A,C]2 [A,CF]2!ped-up! |!ped! B,,2 [A,B,D]4!ped-up! | %9
!ped! E,,2 [E,G,]4!ped-up! |!ped!{/G,,-} G,,2 [E,B,E]4!ped-up! |!ped! F,,2 C,4!ped-up! | %12
!ped!{/E,,-} [E,,G,]6!ped-up! |!ped! F,,2 D,2 A,2!ped-up! |!ped! (D,2- [G,,D,G,]4)!ped-up! | %15
!ped!{/C,,-} C,,2 [G,CE]2 [G,CE]2!ped-up! |!ped! F,,2 [F,A,CF]2 [A,CF]2!ped-up! | %17
!ped! B,,2 [A,B,D]4!ped-up! |!ped! E,,2 [E,G,]4!ped-up! |!ped!{/G,,-} [G,,B,]6!ped-up! | %20
!ped! [F,,A,]6!ped-up! |!ped! [E,,G,]6!ped-up! |!ped! F,,2 D,2 A,2!ped-up! | %23
!ped! (D,2-!pp! [D,G,]4)!ped-up! |!ped!{/=D,-} D,2 [B,=D]2 [G,E]2!ped-up! | %25
!ped!({/A,,-} A,,6[K:treble]!ped-up! |[K:bass]!ped!{/A,,-)} A,,2 G,2 =F,2!ped-up! | %27
!ped! A,,4[K:treble]!>(! z[K:bass] ^^F,!ped-up!!>)! | %28
!mp!!ped!{/G,,-} G,,D, ^B,F,{/G,-} G,2!ped-up! | %29
!ped! [C,,C,]4[K:treble]!>(! x!>)![K:bass] (G,/G,,/)!ped-up! | %30
!ped! (3(G,,F,A,)({/^B,-} B,A, F,D,)!ped-up! | %31
!ped! [C,,C,]4[K:treble]!>(! x!>)![K:bass] (G,!ped-up! | %32
{/B,,-} (3B,,/F,/-F,/B, [^A,,^A,]/[I:staff -1][Cc]/[I:staff +1][=A,,=A,]/[I:staff -1][Dd]/[I:staff +1] [G,,G,]/[I:staff -1][Ee]/[I:staff +1][F,,F,]/[I:staff -1][Ff]/ | %33
!ped![I:staff +1] [E,,E,]2) ([E,B,]2 [G,E]2)!ped-up! | %34
!ped! !>!!fermata![=D,,,=D,,]2 E2 E2!ped-up! | %35
!ped! [D,,D,]2 !arpeggio![D,F]2{/[B,B]-} [B,B]2!ped-up! | %36
!ped!{/!>![C,,,C,,]-} [C,,,C,,]2!f! !>!F2 !>![E,CE]2 |!ped-up! %37
!ped! ([B,,B,][G,D] [B,G]D) G,2!ped-up! |!ped! (!>![A,,,A,,]6!ped-up! | %39
!ped! [G,,,G,,])G,- G,4!ped-up! |!ped! [A,,,A,,]6!ped-up! | %41
!ped!{/[G,,,G,,]-} [G,,,G,,]2 !>![G,G]2 !>![G,G]2!ped-up! | %42
 !^!!tenuto![=D,,,=D,,]2 !^![G,G]2 !^![G,G]2 | %43
!ped! !^![C,,,C,,]2 [B,C^EG][B,CEG] (3[B,CEG][B,CEG][B,CEG]!ped-up! !arpeggio![B,CEG]/!arpeggio![B,CEG]/!arpeggio![B,CEG]/!arpeggio![B,CEG]/ x8 | %44
!ped! [F,,,F,,]6 | x10!ped-up!!ped! [=D,,=D,]6!ped-up! | %46
!ped!{/[E,,E,]-} [E,,E,]6[K:treble][K:bass]!ped-up! |!ped! A,,6!ped-up! | %48
!mp!!ped! =D,,6[K:treble]!ped-up! |[K:bass]!ped!{/[C,,,C,,]-} [C,,,C,,]6!ped-up! | %50
!ped!{/[B,,,B,,]-} [B,,,B,,]6!ped-up! |!ped!{/[A,,,A,,]-} [A,,,A,,]6!ped-up! | %52
!ped!{/[F,,,F,,]-} [F,,,F,,]6!ped-up! |!ped!{/[D,,,D,,]-} [D,,,D,,]6!ped-up! | %54
 ([C,C]/!ped![I:staff -1]([cc']/[I:staff +1][^A,,^A,]/[I:staff -1][^A^a]/[I:staff +1] [G,,G,]/[I:staff -1][Gg]/[I:staff +1][^^F,,^^F,]/)[I:staff -1][^^F^^f]/)[I:staff +1] (3:2:6([E,E]/[I:staff -1]([ee']/[I:staff +1][D,D]/[I:staff -1][dd']/[I:staff +1][C,C]/)[I:staff -1][cc']/)!ped-up![I:staff +1] (3:2:6([F,F]/[I:staff -1]([^^f^^f']/[I:staff +1][^F,^F]/[I:staff -1][^f^f']/[I:staff +1][E,E]/)[I:staff -1][ee']/)[I:staff +1] (3:2:6([A,A]/[I:staff -1]([^a^a']/[I:staff +1][G,G]/[I:staff -1][gg']/[I:staff +1][^^F,^^F]/)[I:staff -1][^^f^^f']/)[I:staff +1][K:treble] (3:2:6([Ee]/[I:staff -1]([e'e'']/[I:staff +1][Cc]/[I:staff -1][c'c'']/[I:staff +1][A,A]/[I:staff -1][aa']/[I:staff +1][K:bass] (3:2:6[F,F]/[I:staff -1][ff']/[I:staff +1][E,E]/[I:staff -1][ee']/[I:staff +1][C,C]/[I:staff -1][cc']/[I:staff +1] (3:2:6[A,,A,]/[I:staff -1][Aa]/[I:staff +1][F,,F,]/[I:staff -1][Ff]/[I:staff +1][E,,E,]/!ped-up!!ped![I:staff -1][Ee]/[I:staff +1] (3:2:6[C,,C,]/[I:staff -1][Cc]/[I:staff +1][^A,,,A,,]/[I:staff -1][A,A]/[I:staff +1][^^F,,,F,,]/)[I:staff -1][F,F]/)!ped-up!!ped![I:staff +1] (3:2:6([G,,,G,,]/[I:staff -1]([G,G]/[I:staff +1][A,,,A,,]/[I:staff -1][A,A]/[I:staff +1][G,,,G,,]/)[I:staff -1][G,G]/) | %55
!ped![I:staff +1] !^![G,,,G,,]6 | x14!ped-up! %56
[K:bass]!ped!{/!^![E,,,E,,]-} [E,,,E,,]6[K:treble]!ped-up! | %57
[K:bass]!ped!{/[D,,,D,,]-} [D,,,D,,]4[K:treble]!8va(! x2!ped-up![K:bass]!ped-up!!ped! [=D,,,=D,,]/-!8va)![I:staff -1][=B,=B]/ | %58
[I:staff +1] [D,,,D,,]6[K:treble] | %59
 ^B/8=d/8f/8g/8a/8[I:staff -1]b/8^b/8=d'/8^e'/8[I:staff +1]f'/8g'/8b'/8^b'/8!8va(![I:staff -1]=d''/8e''/8^e''/8 [d''g'']/8[I:staff +1][^b'f'']/8[I:staff -1][d''a'']/8[I:staff +1][b'e'']/8[I:staff -1][d''g'']/8[I:staff +1][b'f'']/8[I:staff -1][d''a'']/8[I:staff +1][b'e'']/8[I:staff -1][d''g'']/8[I:staff +1][b'f'']/8[I:staff -1][d''a'']/8[I:staff +1][b'e'']/8[I:staff -1][d''g'']/8[I:staff +1][b'f'']/8[I:staff -1][d''a'']/8[I:staff +1][b'e'']/8!<(![I:staff -1] ([^d''g'']/8[I:staff +1]=b'/8[I:staff -1]^b'/8[I:staff +1][f'a']/8!8va)![I:staff -1][^dg]/8!<)![I:staff +1]=b/8!>(![I:staff -1]^b/8[I:staff +1][fa]/8[I:staff -1][dg]/8[I:staff +1]=B/8[I:staff -1]^B/8[I:staff +1][FA]/8[I:staff -1][DG]/8[I:staff +1][K:bass]B,/8[F,A,]/8[I:staff -1]^B,/8G,/8!>)!!mp![I:staff +1]G,,/8) | %60
!ped! G,,,4[K:treble]!ped-up!!ped! x2!ped-up! |!ped! [DBf]6!ped-up! | %62
[K:bass]!p!"^dolcissimo"!ped!{/C,,-} C,,2{/C-E-} [CE]4 |!ped-up!!ped! [FAd]6!ped-up! | %64
!ped! B,,,6!ped-up! |!ped! z2 (E,,2 [G,B,]2)!ped-up! | [G,,E,B,]6 |!ped! ^B,6!ped-up! | %68
!ped!{/[C-E-G]} [CE]6!ped-up! |!ped! (A,-F- !fermata![A,Fc]4)!ped-up! x2 x4 | %70
!ped!{/G,,-} G,,6 | x6!ped-up!!ped!{/C,,-} C,,2 [E,G,]2 [E,G,]2!ped-up! | %72
!ped!{/D,,-} D,,2{/^A,,-} A,,2 ^^F,2!ped-up! |!ped!{/x-} G,,6!ped-up! |!ped!{/E,,-} E,,6-!ped-up! | %75
 E,,4- E,,2 |!ped! [G,,F,]6[K:treble]!ped-up! |[K:bass]!ped! [G,,E,]6[K:treble]!ped-up! | %78
 c/4e/4!>(!a/4^^f/4g-!>)! g4- | g"_cantabile"!p!!ped-up!!ped! ([fa][eg][df][ce][Gd] | %80
!ped! !arpeggio![C,G,EGc]2) !arpeggio![Gcg]2 !arpeggio!g2!ped-up! | %81
[K:bass] !tenuto![C,,G,,]4 !fermata!z2 |] %82
V:4
 z2 ((!tenuto![CFB]2 [CFA]2)) | z2 !tenuto![CFB]2 [CFA]2 | z2 ([C,F,]2 [C,F,A,]2) x4 | %3
[K:treble] x23/2 | x19/2 |[K:bass] x6 | x6 | x6 | x6 | x6 | x6 | x6 | (D,2 C,4) | x6 | G,,2 x2 x2 | %15
 x6 | x6 | x6 | x6 | (F,2 E,4) | z2 (^B,,2 C,2 | D,2 C,4) | x6 | G,,6 | x6 | %25
x(3E,/A,/C/!<(![I:staff -1] (6:4:6E/F/E/[K:treble]!<)![I:staff +1]e/f/e/[I:staff -1] E/4F/4E/E/4F/4(E/ | %26
[I:staff +1][K:bass] x6 | %27
(x)E,/A,/!<(![I:staff -1] (6:4:6E/F/E/[K:treble]!<)![I:staff +1]e/f/e/[I:staff -1] E/4F/4E/)[K:bass]E/4F/4E/ | %28
 x6 | %29
x!<(!(3G,,/C,/G,/[I:staff -1] (6:4:6G/A/G/[I:staff +1][K:treble][I:staff +1]g/a/g/!<)![I:staff -1] G/4A/4G/[K:bass]G/4A/4G/ | %30
 x6 | %31
(x!<(!(3G,,/C,/G,/[I:staff -1] (6:4:6G/A/G/[I:staff +1][K:treble][I:staff +1]g/a/g/!<)![I:staff -1] G/4A/4G/)[K:bass]G/4A/4G/ | %32
 x6 | x6 |[I:staff +1]x=D,/4G,/4B,/4E/4- x4 | x6 |x!p!(5:4:5E,/4^^F,/4^A,/4C/4F,/4 x4 | x6 | %38
 z2 C/A,/^^F,/C,/ A,/F,/C,/A,,/ |xA GF D^B, |(x/C,/D,/^^F,/ C/F,/D,/C,/ F,/D,/C,/A,,/) | x6 | %42
 x2 [^B,D]2 [B,D]2 | x16 |x(3(C/A,/C/ (3AFA F2) | x6 |xB,/E/[K:treble] F/G/ x x3/2[K:bass] x/ | %47
xE, C2!f! !>!A,2 | %48
(x/8A,,/8=D,/8F,/8G,/8"_cresc."!<(![I:staff -1]A,/8B,/8^B,/8 =D/8^E/8[I:staff +1]F/8G/8[I:staff -1]A/8B/8^B/8=d/8 ^e/8f/8[K:treble][I:staff +1]g/8a/8[I:staff -1]b/8^b/8=d'/8^e'/8!<)! f'/4f''/4f'/)[I:staff +1] (f'/8d'/8b/8a/8f/)"^loco"[I:staff -1] (f/8d/8B/8A/8G/4)[Ff]/4 | %49
[I:staff +1][K:bass] x6 | z2 (3B,,^E,G, (3=DG,E, |xF,/C,/ F,,[A,A] [G,G]{/[F,F]-}[F,F] | %52
xC/F,/ C,[A,A] [G,G]{/[F,F]-}[F,F] |x(3^^F/[CD]/^A,/ ^^F,([A,^A] [G,G][F,F]) | %54
 x10[K:treble] x2[K:bass] x8 | %55
x(F,/4A,/4^B,/4D/4[I:staff -1] (12:16:12^^C/8^E/8F/8G/8B/8[I:staff +1]^B/8d/8f/8[^^fa]/8[I:staff -1]g/8d'/8a'/8)[I:staff +1] x2 | %56
[K:bass]x(E,/4G,/4C/4E/4[I:staff -1] (12:16:12^B,/8D/8^^F/8A/8B/8[K:treble][I:staff +1]G/8c/8e/8[^^fa]/8[I:staff -1]g/8e'/8a'/8)[I:staff +1] x2 | %57
[K:bass]x(5:4:5(F,/4A,/4^B,/4D/4F/4[I:staff -1] (13:16:13G/8^B/8d/8^e/8g/8[K:treble][I:staff +1]a/8^b/8d'/8f'/8[^^f'a']/8!8va(![I:staff -1]^^a'/8^b'/8g''/8-)[I:staff +1] x2[K:bass]!8va)! x | %58
 z2 (17:16:17(A,,/8=D,/8F,/8G,/8[I:staff -1]B,/8^B,/8=D/8^E/8[I:staff +1]F/8G/8B/8^B/8[I:staff -1]=d/8^e/8f/8g/8a/8)!<(![I:staff +1] (18:16:18(^B,/8[K:treble]D/8F/8G/8A/8[I:staff -1]=B/8^B/8d/8e/8!<)![I:staff +1]f/8g/8b/8^b/8!>(![I:staff -1]=d'/8^e'/8f'/8g'/8a'/8) | %59
 x5/8!>)! x!8va(! x23/8!8va)! x9/8[I:staff +1][K:bass] x5/8 | %60
(x/[I:staff -1]A,/A/G/[I:staff +1]{/G} G,)[K:treble][^Bf] [ce]/{/E-}E/[Bf]/-{/D-}D/- | x6 | %62
[K:bass] x2 (GA Gc) | z2 (F,,2 [A,CF]2) | z2 (3A,/-D/-F/- [A,DF]3 | x4 z (3G,,/-E,/-B,/- | %66
{/B-} (B3 c BG) | !tenuto![FA]2 !tenuto![FA]2{/[FA]-} !tenuto![FA]2 | (G3 A GE) | x12 | x6 | x6 | %72
 x6 |{/[G,,F,-]} (F,2- [F,^B,]4) | E,2- [E,G,]4- | [E,G,]4- [E,G,]2 | x2[K:treble] x4 | %77
[K:bass]xC,,/4G,,/4C,/4E,/4 ^B,,/4C,/4E,/4A,/4(3G,/C/E/[K:treble] (6:4:6C/E/A/!<(!G/c/e/ | %78
 x/4!<)! x23/4 | x6 | x6 |[K:bass] x6 |] %82
V:5
 x6 | x6 | x10 |[K:treble] x23/2 | x19/2 |[K:bass] x6 | x6 | x6 | x6 | x6 | x6 | x6 | x6 | x6 | %14
 x6 | x6 | x6 | x6 | x6 | x6 | x6 | x6 | x6 | x6 | x6 | x3[K:treble] x3 |[K:bass] x6 | %27
 x3[K:treble] x2[K:bass] x | x6 | x3[K:treble] x2[K:bass] x | x6 | x3[K:treble] x2[K:bass] x | x6 | %33
 x6 | x6 | x6 | x6 | x6 | x6 | x6 | x6 | x6 | x6 | x16 | x6 | x6 | x2[K:treble] x7/2[K:bass] x/ | %47
 x6 | x9/4[K:treble] x15/4 |[K:bass] x6 | x6 | x6 | x6 | x6 | x10[K:treble] x2[K:bass] x8 | x6 | %56
[K:bass] x17/6[K:treble] x19/6 |[K:bass] x133/48[K:treble] x37/48!8va(! x59/24[K:bass]!8va)! x | %58
 x4[K:treble] x2 | x13/8!8va(! x23/8!8va)! x9/8[K:bass] x5/8 | %60
x2(3(x/[I:staff -1]a/g/[K:treble][I:staff +1]x/4!>(![I:staff -1]a/4a'/4g'/4 g'/4)(a/4a'/4g'/4g'/4)(a/4a'/4!>)!g'/4) | %61
 x6 |[I:staff +1][K:bass] x6 | x6 | z3{/c-} (c AD- | [B,DG]6) | z (E G,) x x2 | x6 | %68
 (3:2:2z2{/G,,-} G,,{/C,,-} C,,4 | x12 | x6 | x6 | x6 | x6 | C6- | C2{/C-} CD C[I:staff -1]E | %76
 x6[I:staff +1][K:treble] |[K:bass] x4[K:treble] x2 | x6 | x6 | x6 |[K:bass] x6 |] %82
V:6
 x6 | x6 | x10 |[K:treble] x23/2 | x19/2 |[K:bass] x6 | x6 | x6 | x6 | x6 | x6 | x6 | x6 | x6 | %14
 x6 | x6 | x6 | x6 | x6 | x6 | x6 | x6 | x6 | x6 | x6 | x3[K:treble] x3 |[K:bass] x6 | %27
 x3[K:treble] x2[K:bass] x | x6 | x3[K:treble] x2[K:bass] x | x6 | x3[K:treble] x2[K:bass] x | x6 | %33
 x6 | x6 | x6 | x6 | x6 | x6 | x6 | x6 | x6 | x6 | x16 | x6 | x6 | x2[K:treble] x7/2[K:bass] x/ | %47
 x6 | x9/4[K:treble] x15/4 |[K:bass] x6 | x6 | x6 | x6 | x6 | x10[K:treble] x2[K:bass] x8 | x6 | %56
[K:bass] x17/6[K:treble] x19/6 |[K:bass] x133/48[K:treble] x37/48!8va(! x59/24[K:bass]!8va)! x | %58
 x4[K:treble] x2 | x13/8!8va(! x23/8!8va)! x9/8[K:bass] x5/8 | x3[K:treble] x3 | x6 |[K:bass] x6 | %63
 x6 | x6 | x6 | x6 | x6 | x6 | x12 | x6 | x6 | x6 | x6 | x6 | x4 x [^A,,^^F,] | x2[K:treble] x4 | %77
[K:bass] x4[K:treble] x2 | x6 | x6 | x6 |[K:bass] x6 |] %82

